X: 20532
M: 2/4
L: 1/16
K: E
edef gBag | fede fBcd | edef gfge | f2^a2b2B2 |\
edef gBag | fede fBcd | edeg fedf | e2g2e2 :|
|: B2 |\
.e2.g2.b2.e'2 | e2g2b2g2 | fBgB agfe | defg fBcd |\
.d2.g2.b2.e'2 | e2g2b2g2 | fBgB agfe | def[gd] e2 :|


